X:300
T: Callaghan's
S: "Play 50 Reels" (Armagh Pipers' Club)
Z: B.Black
L: 1/8
M: 4/4
R: reel
K: G
G3 A Bdgd|BABG AE E2|GBAF GABd|e2 af gedB|
G3 A Bdgd|BABG AE E2|GBAF GABd|egfa g4||
gfga b2 af|gaba gfed|(3Bcd AB GABd|e2 af gfed|
gfga b2 af|gaba gfed|(3Bcd AB GABd|e2 af gedB||
